svg/diff.svg

<?xml version="1.0" encoding="UTF-8"?>
<svg xmlns="http://www.w3.org/2000/svg" xmlns:xlink="http://www.w3.org/1999/xlink" width="32" height="32" viewBox="0 0 32 32">
<path fill-rule="nonzero" fill="rgb(0%, 0%, 0%)" fill-opacity="1" d="M 16.332031 4.667969 C 16.886719 4.667969 17.332031 5.113281 17.332031 5.667969 L 17.332031 11.332031 L 23 11.332031 C 23.550781 11.332031 24 11.78125 24 12.332031 C 24 12.882812 23.550781 13.332031 23 13.332031 L 17.332031 13.332031 L 17.332031 19 C 17.332031 19.550781 16.882812 20 16.332031 20 C 15.78125 20 15.332031 19.550781 15.332031 19 L 15.332031 13.332031 L 9.667969 13.332031 C 9.117188 13.332031 8.667969 12.882812 8.667969 12.332031 C 8.667969 11.78125 9.117188 11.332031 9.667969 11.332031 L 15.332031 11.332031 L 15.332031 5.667969 C 15.332031 5.117188 15.78125 4.667969 16.332031 4.667969 M 8.75 25.667969 C 8.75 25.113281 9.195312 24.667969 9.75 24.667969 L 23 24.667969 C 23.550781 24.667969 24 25.117188 24 25.667969 C 24 26.21875 23.550781 26.667969 23 26.667969 L 9.75 26.667969 C 9.199219 26.667969 8.75 26.21875 8.75 25.667969 "/>
</svg>

<svg role="img" viewBox="0 0 32 32" height="32" width="32" xmlns="http://www.w3.org/2000/svg"><path d="M16.332 4.668c.555 0 1 .445 1 1v5.664H23c.55 0 1 .45 1 1s-.45 1-1 1h-5.668V19c0 .55-.45 1-1 1s-1-.45-1-1v-5.668H9.668c-.55 0-1-.45-1-1s.45-1 1-1h5.664V5.668c0-.55.45-1 1-1m-7.582 21c0-.555.445-1 1-1H23c.55 0 1 .45 1 1s-.45 1-1 1H9.75c-.55 0-1-.45-1-1"/></svg>
